public/img/decorations/deco-dots-3.svg

<svg width="110" height="116" viewBox="0 0 110 116" fill="none" xmlns="http://www.w3.org/2000/svg">
<path d="M56.0201 7.05393C59.1721 4.51793 59.7681 4.46094 62.2881 6.41394C62.0951 6.69994 61.9211 7.01594 61.6921 7.28394C61.1841 7.88094 61.1741 7.87095 61.8561 8.97595C61.3271 9.84795 60.7561 10.786 60.1081 11.855C60.6431 12.46 61.1801 13.029 61.6701 13.635C62.1681 14.251 62.7231 14.8549 63.0631 15.5549C63.3851 16.2189 63.4631 17.002 63.6741 17.834C61.8561 18.334 60.2351 18.0659 58.8281 16.7719C58.2441 16.2349 57.6871 15.6679 57.1821 15.1749C56.2431 15.0949 55.7871 15.743 55.2171 16.135C53.3071 17.447 51.3931 18.7399 49.1231 19.3709C48.8961 19.4339 48.6581 19.4569 48.4691 19.4919C48.2741 19.4259 48.1001 19.4089 47.9791 19.3199C46.3381 18.1189 46.1781 17.4189 47.3031 15.8059C47.6551 15.3039 48.1841 14.9089 48.6781 14.5269C49.2421 14.0899 49.8931 13.7629 50.4511 13.3179C53.4801 10.8969 53.0801 11.0889 51.2521 8.46894C49.9811 6.64594 48.9201 4.67293 47.8111 2.73993C47.3131 1.87393 47.3461 0.917928 47.8421 0.536928C48.5101 0.0219278 49.2811 -0.108072 50.1001 0.161928C51.0711 0.481928 51.6641 1.24693 52.2331 2.01593C53.1781 3.29693 54.0751 4.61694 55.0121 5.90494C55.2831 6.28094 55.6231 6.60693 56.0201 7.05393Z" fill="black"/>
<path d="M45.2522 52.563C45.6802 53.121 45.8982 53.446 46.1582 53.735C46.5842 54.211 47.0332 54.6671 47.4802 55.1261C49.0032 56.6921 49.6262 58.568 49.4842 60.869C48.4452 60.965 47.5882 60.5641 46.7712 60.1421C46.0742 59.7831 45.2692 59.4151 44.8262 58.8201C43.6172 57.1911 41.8062 56.2541 40.6542 54.6871C39.7752 54.8601 39.0842 55.004 38.3882 55.132C37.0792 55.372 36.1932 54.8641 35.8572 53.6091C35.7382 53.1581 35.6072 52.572 35.7912 52.201C36.5312 50.712 35.6662 49.5981 35.0312 48.4401C34.6852 47.8071 34.2602 47.2361 34.2672 46.4651C34.2752 45.6621 34.8082 45.0261 35.6092 45.1341C36.2972 45.2281 37.0002 45.4641 37.6092 45.7971C38.1562 46.0961 38.6462 46.562 39.0502 47.046C40.0402 48.224 41.1552 48.3071 42.4562 47.6401C43.2372 47.2391 44.0502 46.9001 44.8542 46.5481C45.5122 46.2611 46.1842 46.0071 46.8402 45.7201C49.0592 44.7491 50.9102 46.8641 51.0632 48.8941C51.1082 49.5121 50.8132 50.0041 50.2742 50.2671C49.3422 50.7221 48.3762 51.106 47.4302 51.533C46.7832 51.825 46.1452 52.14 45.2522 52.563Z" fill="black"/>
<path d="M70.824 40.181C70.357 40.472 69.8729 40.739 69.4259 41.059C68.7969 41.512 68.141 41.636 67.364 41.35C66.548 40.289 66.532 39.2 67.315 38.089C67.999 37.12 68.6859 36.153 69.4609 35.058C68.9789 34.524 68.5389 33.972 68.0329 33.488C66.9839 32.484 66.2029 31.295 65.4179 30.087C64.7319 29.033 64.717 28.035 65.203 26.77C65.746 26.841 66.348 26.767 66.769 27.007C67.589 27.474 68.3569 28.067 69.0599 28.701C70.2439 29.764 71.359 30.901 72.527 32.03C73.672 31.734 74.2299 30.79 75.0039 30.147C75.9019 29.399 76.8419 28.883 78.0629 29.19C78.6059 29.326 79.135 29.419 79.514 29.923C79.793 30.297 80.1859 30.585 80.6119 30.991C80.5589 33.131 78.7249 34.322 77.6329 36.135C77.8769 36.432 78.123 36.818 78.449 37.114C79.707 38.251 80.2669 39.66 80.2009 41.443C78.6309 42.078 77.3239 41.327 76.0429 40.561C75.6409 40.32 75.318 39.938 74.984 39.596C74.466 39.065 73.8379 39.13 73.1969 39.21L73.2399 39.261C72.8629 39.052 72.4879 38.923 72.1189 39.277C72.0019 39.344 71.8919 39.422 71.7909 39.511C71.4469 39.75 71.103 39.99 70.76 40.228L70.824 40.181Z" fill="black"/>
<path d="M96.1969 45.298C95.2609 44.256 94.5079 43.44 93.7809 42.602C93.1009 41.821 92.3918 41.057 91.8038 40.21C91.1558 39.277 91.7079 38.274 92.8249 38.171C93.6489 38.095 94.4229 38.198 95.0869 38.719C95.8369 39.307 96.5689 39.916 97.2979 40.528C98.0269 41.139 98.7389 41.766 99.5419 42.457C100.458 42.04 101.009 41.271 101.649 40.588C102.602 39.573 104.172 39.237 105.364 39.766C106.288 40.176 106.975 40.789 106.88 41.942C106.847 42.334 106.837 42.738 106.896 43.124C107.029 43.992 106.81 44.633 106.05 45.176C105.421 45.624 104.941 46.275 104.413 46.816C104.772 47.655 105.151 48.343 105.358 49.079C105.542 49.736 105.532 50.447 105.631 51.329C103.625 51.114 101.963 50.533 100.447 49.324C99.7199 49.663 99.0109 49.994 98.3009 50.325C96.8339 51.011 95.2909 51.363 93.6699 51.312C92.8299 51.286 92.3768 50.75 92.3728 49.925C92.3648 48.594 93.1519 47.706 94.0639 46.91C94.6599 46.395 95.3219 45.956 96.1969 45.298Z" fill="black"/>
<path d="M101.844 91.355C102.533 90.708 103.045 90.219 103.565 89.738C104.352 89.009 105.28 88.59 106.346 88.473C107.282 88.371 108.116 88.97 108.166 89.915C108.268 91.837 108.137 93.727 106.768 95.423C108.45 96.804 109.608 98.433 109.563 100.773C108.346 101.144 107.262 100.505 106.223 100.104C105.217 99.716 104.348 98.97 103.33 98.326C101.726 98.993 100.053 99.693 98.373 100.385C98.08 100.506 97.783 100.629 97.475 100.697C96.645 100.881 95.815 100.256 95.86 99.408C95.889 98.869 96.03 98.293 96.278 97.814C96.825 96.761 97.471 95.758 98.178 94.563C98.037 94.205 97.905 93.663 97.625 93.21C97.336 92.741 96.9 92.363 96.541 91.937C95.252 90.409 94.629 88.672 94.853 86.662C96.527 86.557 97.419 86.893 98.632 88.123C99.193 88.691 99.696 89.314 100.253 89.885C100.695 90.336 101.18 90.745 101.844 91.355Z" fill="black"/>
<path d="M23.8872 15.5589C22.6252 16.2679 21.4532 16.9369 20.2702 17.5889C19.5822 17.9669 18.9482 18.371 18.0512 18.294C17.4892 18.246 16.8932 18.718 16.2972 18.911C15.7872 19.078 15.3522 18.905 15.0652 18.445C14.5652 17.646 14.4672 16.811 14.8952 15.945C15.4382 14.842 16.2172 13.9829 17.3132 13.3779C18.2802 12.8449 19.3152 12.3549 19.9202 11.1969C19.3592 9.76695 17.7032 9.25894 16.9362 8.01094C16.8932 7.24394 17.2312 6.65994 17.8252 6.39894C18.7062 6.00994 19.6772 5.88596 20.6122 6.28096C21.1262 6.49696 21.6142 6.77695 22.0922 7.06395C22.7742 7.47495 23.4342 7.91995 24.2092 8.41795C24.7172 8.15295 25.2932 7.89896 25.8202 7.56496C26.7812 6.95896 27.7732 7.01394 28.8182 7.26094C29.9662 7.53194 30.3612 8.55595 30.9042 9.37795C31.0842 9.64995 30.8492 10.318 30.6272 10.7C30.3972 11.094 29.9572 11.3709 29.5922 11.6789C29.1082 12.0869 28.6082 12.4749 28.1312 12.8569C28.4202 14.3099 28.7292 15.684 28.9552 17.071C29.0742 17.812 28.4632 18.199 27.7152 17.906C27.0492 17.645 26.3522 17.423 25.7442 17.057C25.1452 16.698 24.6412 16.1789 23.8872 15.5589Z" fill="black"/>
<path d="M69.8009 69.525C69.1799 68.537 68.5409 67.532 67.9119 66.521C67.3529 65.621 67.0229 64.642 67.0159 63.58C67.0039 62.432 67.9179 61.762 68.9379 62.264C69.6289 62.604 70.2659 63.135 70.8009 63.7C71.5629 64.504 72.2109 65.417 72.9669 66.358C73.7209 66.049 74.4259 65.711 75.1619 65.469C76.9219 64.891 78.1719 65.803 78.5489 67.666C78.8359 69.082 78.6329 70.163 77.2109 70.859C77.6349 73.103 79.7929 74.8 79.2129 77.494C77.3889 76.984 75.6059 76.826 74.3259 75.264C73.4779 74.231 72.7649 74.256 71.6149 75.024C70.6209 75.686 69.6499 76.385 68.6399 77.02C67.9329 77.464 67.2119 77.227 66.8369 76.483C66.2609 75.338 66.1319 74.174 66.9419 73.094C67.7969 71.954 68.7209 70.867 69.8009 69.525Z" fill="black"/>
<path d="M11.2291 50.851C12.3481 53.413 12.3931 53.754 11.8481 55.872C11.4161 55.737 10.9671 55.659 10.5781 55.459C9.80111 55.06 8.99812 54.671 8.31212 54.141C6.20712 52.516 6.17311 52.571 3.67711 53.987C3.16711 53.747 2.60311 53.481 2.13611 53.261C1.51111 51.93 1.95211 50.83 2.50511 49.796C1.85111 48.519 1.2841 47.296 0.616104 46.134C-0.160896 44.784 -0.115892 43.569 1.02611 42.371C3.56311 42.53 4.2331 45.257 6.2921 46.302C7.2761 46.048 7.9011 45.2 8.5631 44.438C9.0941 43.825 9.64111 43.278 10.4181 42.984C12.0331 42.374 13.3071 42.783 14.3031 44.259C15.3191 45.762 15.3601 46.257 14.2371 47.622C13.3361 48.723 12.2991 49.713 11.2291 50.851Z" fill="black"/>
<path d="M103.832 64.201C106.49 63.505 107.318 63.6351 108.391 64.8361C109.336 65.8931 109.405 66.6721 108.692 68.6721C109.68 70.3131 110.381 72.0931 109.698 74.3111C109.05 73.9241 108.542 73.5901 108.005 73.3091C107.368 72.9771 106.683 72.735 106.067 72.373C105.526 72.054 105.049 71.6231 104.512 71.2161C103.106 71.6291 101.725 72.0101 100.362 72.4441C99.5981 72.6871 98.8421 73.1131 98.1711 72.3221C97.5541 71.5961 97.4911 70.3191 98.0711 69.4281C98.4561 68.8361 98.9441 68.3051 99.4261 67.7831C99.6801 67.5081 100.02 67.3081 100.401 67.0121C100.012 66.4651 99.6881 66.0281 99.3831 65.5781C98.6251 64.4541 97.8771 63.3241 97.1211 62.1971C96.2131 60.8421 96.2541 59.3161 96.4511 57.8141C96.5131 57.3341 97.0121 56.9111 97.2651 56.5281C98.2981 56.5371 98.6011 57.2771 99.0091 57.8311C100.142 59.3731 101.212 60.9631 102.347 62.5041C102.811 63.1331 103.377 63.686 103.832 64.201Z" fill="black"/>
<path d="M107.551 8.04991C106.336 9.03991 105.123 10.0309 103.949 10.9879C104.795 13.7779 104.896 14.5269 104.662 16.3629C102.621 15.9779 101.082 14.7979 99.6482 13.3439C97.8102 13.9219 95.9982 14.4909 94.1682 15.0659C93.5982 14.7179 93.0662 14.3949 92.5762 14.0969C92.1762 12.8759 93.1172 12.2839 93.6832 11.5759C94.2242 10.9019 94.9212 10.3529 95.5582 9.74193C95.4432 8.91993 94.7202 8.62893 94.1812 8.19493C93.6282 7.74893 93.0312 7.35792 92.4842 6.96492C92.9982 5.24492 93.9632 4.56193 95.4272 4.95393C96.4192 5.21993 97.3762 5.64192 98.3232 6.05492C98.8992 6.30792 99.4272 6.67694 100.096 7.06194C100.524 6.76194 100.965 6.45292 101.407 6.14192C102.319 5.49992 103.19 4.78992 104.151 4.23192C105.473 3.46392 107.128 3.76191 108.051 4.89891C108.604 5.57991 108.459 6.38891 108.197 7.16591C108.31 6.78191 108.156 6.50592 107.783 6.70192C107.201 7.00592 107.16 7.51791 107.551 8.04991Z" fill="black"/>
<path d="M16.3109 105.689C16.0039 105.412 15.8518 105.205 15.6488 105.103C13.2268 103.898 11.4479 101.953 9.70985 99.96C9.50485 99.724 9.26885 99.465 9.18885 99.177C9.06785 98.738 8.90787 98.2 9.05787 97.82C9.27887 97.266 9.85485 97.515 10.3219 97.603C11.7479 97.873 13.0599 98.323 14.2729 99.205C15.4919 100.092 16.8879 100.73 18.2089 101.473C18.9839 101.909 19.7729 102.17 20.7109 102.112C22.2789 102.016 23.4749 102.688 24.1719 104.163C24.3399 104.515 24.6349 104.808 24.8789 105.122C25.4399 105.849 25.7969 106.579 25.4039 107.554C25.2559 107.923 25.4369 108.427 25.4779 109.033C24.2769 108.762 23.2789 108.537 22.3449 108.327C20.9969 109.16 19.7489 110.016 18.4229 110.727C17.1609 111.403 15.8179 111.926 14.5749 112.487C13.8699 111.966 13.2059 111.532 12.6119 111.016C12.2289 110.682 12.0728 110.155 12.4208 109.722C12.9128 109.105 13.4479 108.496 14.0599 108.004C14.8709 107.353 15.7149 106.758 16.3109 105.689Z" fill="black"/>
<path d="M49.1802 86.532C49.6552 88.307 50.2012 90.069 49.4182 92.006C47.9752 92.111 46.9712 91.287 46.0572 90.28C45.5362 89.706 45.0282 89.119 44.4832 88.502C43.6042 88.721 42.8542 88.906 42.0202 89.113C41.3502 87.704 42.0082 86.396 41.9362 84.813C41.0822 83.431 40.0862 81.808 39.0812 80.192C38.8272 79.786 38.5153 79.416 38.2823 79C37.7573 78.061 38.2622 77.047 39.3392 76.835C40.2572 76.654 41.1092 76.844 41.7962 77.458C42.4462 78.04 43.0152 78.715 43.6162 79.352C44.2122 79.982 44.6652 80.771 45.6732 81.115C45.8682 80.995 46.2143 80.897 46.3683 80.671C47.3063 79.299 48.6432 79.369 50.0182 79.622C50.9912 79.802 51.8252 80.741 51.9832 81.744C52.0322 82.058 52.0492 82.378 52.1002 82.692C52.2072 83.374 52.0393 83.926 51.4933 84.395C50.7133 85.066 49.9792 85.789 49.1802 86.532Z" fill="black"/>
<path d="M67.0101 115.141C67.0281 114.983 67.0451 114.825 67.0781 114.52C66.5881 114.52 66.0961 114.557 65.6131 114.502C65.4001 114.479 65.1521 114.313 65.0151 114.136C64.7281 113.767 64.5051 113.348 64.2921 113.008C64.7801 111.246 65.6731 109.895 67.3801 109.008C66.3231 107.477 65.0621 106.319 63.8101 105.217C64.2611 103.867 65.351 103.764 66.369 103.842C67.221 103.906 68.0641 104.25 68.8751 104.565C69.4591 104.794 69.98 105.178 70.58 105.521C71.488 104.877 72.3441 104.182 73.2811 103.627C74.8771 102.682 76.9781 103.578 77.4201 105.334C77.4571 105.48 77.4711 105.715 77.3871 105.795C76.7871 106.361 77.0181 107.047 77.0161 107.722C77.0161 107.998 76.7501 108.287 76.5691 108.544C76.2491 109 75.9011 109.436 75.4791 109.994C75.4791 111.053 75.4791 112.223 75.4791 113.238C74.8111 113.9 74.2801 113.631 73.7881 113.39C72.4381 112.734 71.2221 112.945 69.9761 113.738C69.0501 114.328 68.1031 114.957 66.9531 115.078L67.0101 115.141Z" fill="black"/>
<path d="M18.5682 79.488C20.3222 82.367 20.4922 83.267 19.5802 85.064C18.3182 84.46 16.9713 84.06 15.8593 83.108C14.8753 82.265 14.1542 82.273 13.0562 82.98C12.7242 83.195 12.4112 83.45 12.1202 83.718C11.4792 84.312 10.7782 84.134 10.1282 83.826C9.54424 83.55 9.48924 82.961 9.58924 82.376C9.72424 81.595 9.75326 80.769 10.0403 80.046C10.5073 78.871 10.3513 77.885 9.57126 76.934C9.37226 76.691 9.19426 76.405 9.10026 76.109C8.91426 75.513 8.62326 74.88 9.17026 74.318C9.62726 73.849 10.2113 73.959 10.7463 74.107C11.1973 74.234 11.6292 74.453 12.0512 74.669C12.4732 74.886 12.8732 75.148 13.4012 75.461C13.8402 75.044 14.2622 74.596 14.7312 74.207C15.6982 73.408 16.7843 72.988 18.0533 73.334C19.0453 73.604 19.6702 74.367 19.7662 75.389C19.9322 77.162 19.8552 77.431 18.5682 79.488Z" fill="black"/>
</svg>

<svg width="110" height="116" fill="none" xmlns="http://www.w3.org/2000/svg"><path d="M56.02 7.054c3.152-2.536 3.748-2.593 6.268-.64-.193.286-.367.602-.596.87-.508.597-.518.587.164 1.692l-1.748 2.879c.535.605 1.072 1.174 1.562 1.78.498.616 1.053 1.22 1.393 1.92.322.664.4 1.447.611 2.279-1.818.5-3.439.232-4.846-1.062-.584-.537-1.14-1.104-1.646-1.597-.939-.08-1.395.568-1.965.96-1.91 1.312-3.824 2.605-6.094 3.236-.227.063-.465.086-.654.12-.195-.065-.369-.082-.49-.171-1.64-1.201-1.8-1.901-.676-3.514.352-.502.881-.897 1.375-1.28.564-.436 1.215-.763 1.773-1.208 3.03-2.421 2.63-2.23.801-4.85-1.27-1.822-2.332-3.795-3.44-5.728-.499-.866-.466-1.822.03-2.203.668-.515 1.44-.645 2.258-.375.971.32 1.564 1.085 2.133 1.854.945 1.28 1.842 2.6 2.78 3.889.27.376.61.702 1.007 1.149zM45.252 52.563c.428.558.646.883.906 1.172.426.476.875.932 1.322 1.391 1.523 1.566 2.146 3.442 2.004 5.743-1.039.096-1.896-.305-2.713-.727-.697-.359-1.502-.727-1.945-1.322-1.209-1.629-3.02-2.566-4.172-4.133-.879.173-1.57.317-2.266.445-1.309.24-2.195-.268-2.53-1.523-.12-.45-.25-1.037-.067-1.408.74-1.489-.125-2.603-.76-3.76-.346-.634-.77-1.205-.764-1.976.008-.803.541-1.439 1.342-1.33.688.093 1.391.33 2 .662.547.3 1.037.765 1.441 1.249.99 1.178 2.105 1.261 3.406.594.781-.4 1.594-.74 2.398-1.092.658-.287 1.33-.54 1.986-.828 2.22-.97 4.07 1.144 4.223 3.174.045.618-.25 1.11-.789 1.373-.932.455-1.898.839-2.844 1.266-.647.292-1.285.607-2.178 1.03zm25.572-12.382c-.467.291-.951.558-1.398.878-.63.453-1.285.577-2.062.291-.816-1.061-.832-2.15-.049-3.261.684-.969 1.37-1.936 2.146-3.031-.482-.534-.922-1.086-1.428-1.57-1.05-1.004-1.83-2.193-2.615-3.401-.686-1.054-.701-2.052-.215-3.317.543.071 1.145-.003 1.566.237.82.467 1.588 1.06 2.29 1.694 1.185 1.063 2.3 2.2 3.468 3.329 1.145-.296 1.703-1.24 2.477-1.883.898-.748 1.838-1.264 3.059-.957.543.136 1.072.229 1.451.733.279.374.672.662 1.098 1.068-.053 2.14-1.887 3.331-2.98 5.144.245.297.491.683.817.979 1.258 1.137 1.818 2.546 1.752 4.329-1.57.635-2.877-.116-4.158-.882-.402-.241-.725-.623-1.059-.965-.518-.531-1.146-.466-1.787-.386l.043.051c-.377-.209-.752-.338-1.121.016a1.994 1.994 0 00-.328.234l-1.031.717.064-.047zm25.373 5.117c-.936-1.042-1.69-1.858-2.416-2.696-.68-.781-1.39-1.545-1.977-2.392-.648-.933-.096-1.936 1.02-2.039.825-.076 1.599.027 2.263.548.75.588 1.482 1.197 2.21 1.809.73.611 1.442 1.238 2.245 1.929.916-.417 1.467-1.186 2.107-1.869.953-1.015 2.523-1.351 3.715-.822.924.41 1.611 1.023 1.516 2.176-.033.392-.043.796.016 1.182.133.868-.086 1.509-.846 2.052-.629.448-1.109 1.099-1.637 1.64.359.839.738 1.527.945 2.263.184.657.174 1.368.273 2.25-2.006-.215-3.668-.796-5.184-2.005l-2.146 1.001c-1.467.686-3.01 1.038-4.631.987-.84-.026-1.293-.562-1.297-1.387-.008-1.331.779-2.219 1.69-3.015.597-.515 1.259-.954 2.134-1.612zm5.647 46.057c.689-.647 1.201-1.136 1.721-1.617a4.752 4.752 0 012.781-1.265c.936-.102 1.77.497 1.82 1.442.102 1.922-.029 3.812-1.398 5.508 1.682 1.381 2.84 3.01 2.795 5.35-1.217.371-2.301-.268-3.34-.669-1.006-.388-1.875-1.134-2.893-1.778-1.604.667-3.277 1.367-4.957 2.059-.293.121-.59.244-.898.312-.83.184-1.66-.441-1.615-1.289a4.03 4.03 0 01.418-1.594c.547-1.053 1.193-2.056 1.9-3.251-.141-.358-.273-.9-.553-1.353-.289-.469-.725-.847-1.084-1.273-1.289-1.528-1.912-3.265-1.688-5.275 1.674-.105 2.566.231 3.779 1.461.561.568 1.064 1.191 1.621 1.762.442.451.927.86 1.591 1.47zM23.887 15.559c-1.262.709-2.434 1.378-3.617 2.03-.688.378-1.322.782-2.219.705-.562-.048-1.158.424-1.754.617-.51.167-.945-.006-1.232-.466-.5-.799-.598-1.634-.17-2.5.543-1.103 1.322-1.962 2.418-2.567.967-.533 2.002-1.023 2.607-2.181-.56-1.43-2.217-1.938-2.984-3.186-.043-.767.295-1.351.89-1.612.88-.39 1.851-.513 2.786-.118.514.216 1.002.496 1.48.783.682.41 1.342.856 2.117 1.354.508-.265 1.084-.519 1.611-.853.961-.606 1.953-.551 2.998-.304 1.148.27 1.543 1.295 2.086 2.117.18.272-.055.94-.277 1.322-.23.394-.67.67-1.035.979-.484.408-.984.796-1.46 1.178.288 1.453.597 2.827.823 4.214.12.741-.492 1.128-1.24.835-.666-.261-1.363-.483-1.97-.849-.6-.359-1.104-.878-1.858-1.498zM69.8 69.525c-.62-.988-1.26-1.993-1.888-3.004-.56-.9-.89-1.879-.896-2.941-.012-1.148.902-1.818 1.922-1.316.69.34 1.328.871 1.863 1.436.762.804 1.41 1.717 2.166 2.658.754-.309 1.459-.647 2.195-.889 1.76-.578 3.01.334 3.387 2.197.287 1.416.084 2.497-1.338 3.193.424 2.244 2.582 3.941 2.002 6.635-1.824-.51-3.607-.668-4.887-2.23-.848-1.033-1.561-1.008-2.711-.24-.994.662-1.965 1.361-2.975 1.996-.707.444-1.428.207-1.803-.537-.576-1.145-.705-2.309.105-3.389.855-1.14 1.779-2.227 2.859-3.569zM11.23 50.851c1.118 2.562 1.163 2.903.618 5.021-.432-.135-.88-.213-1.27-.413-.777-.399-1.58-.788-2.266-1.318-2.105-1.625-2.139-1.57-4.635-.154l-1.54-.726c-.626-1.331-.185-2.431.368-3.465-.654-1.277-1.22-2.5-1.889-3.662-.777-1.35-.732-2.565.41-3.763 2.537.159 3.207 2.886 5.266 3.931.984-.254 1.61-1.102 2.271-1.864.531-.613 1.078-1.16 1.855-1.454 1.615-.61 2.89-.201 3.885 1.275 1.016 1.503 1.057 1.998-.066 3.363-.9 1.101-1.938 2.091-3.008 3.229zm92.602 13.35c2.658-.696 3.486-.566 4.559.635.945 1.057 1.014 1.836.301 3.836.988 1.641 1.689 3.421 1.006 5.64-.648-.388-1.156-.722-1.693-1.003-.637-.332-1.322-.574-1.938-.936-.541-.319-1.018-.75-1.555-1.157-1.406.413-2.787.794-4.15 1.228-.764.243-1.52.67-2.19-.122-.618-.726-.68-2.003-.1-2.894.384-.592.872-1.123 1.354-1.645.254-.275.594-.475.975-.77-.389-.548-.713-.985-1.018-1.435-.758-1.124-1.506-2.254-2.262-3.38-.908-1.356-.867-2.882-.67-4.384.062-.48.561-.903.814-1.286 1.033.01 1.336.75 1.744 1.303 1.133 1.542 2.203 3.132 3.338 4.673.464.63 1.03 1.182 1.485 1.697zm3.719-56.151l-3.602 2.938c.846 2.79.947 3.539.713 5.375-2.041-.385-3.58-1.565-5.014-3.02-1.838.579-3.65 1.148-5.48 1.723l-1.592-.97c-.4-1.22.541-1.812 1.107-2.52.541-.674 1.238-1.223 1.875-1.834-.115-.822-.838-1.113-1.377-1.547-.553-.446-1.15-.837-1.697-1.23.514-1.72 1.48-2.403 2.943-2.011.992.266 1.95.688 2.896 1.1.576.254 1.104.623 1.773 1.008l1.311-.92c.912-.642 1.783-1.352 2.744-1.91 1.322-.768 2.977-.47 3.9.667.553.68.408 1.49.146 2.267.113-.384-.041-.66-.414-.464-.582.304-.623.816-.232 1.348zM16.31 105.689c-.306-.277-.458-.484-.661-.586-2.422-1.205-4.201-3.15-5.94-5.143-.204-.236-.44-.495-.52-.783-.121-.439-.281-.977-.131-1.357.22-.554.797-.305 1.264-.217 1.426.27 2.738.72 3.95 1.602 1.22.887 2.616 1.525 3.937 2.268.775.436 1.564.697 2.502.639 1.568-.096 2.764.576 3.46 2.051.169.352.464.645.708.959.56.727.918 1.457.525 2.432-.148.369.033.873.074 1.479l-3.133-.706c-1.348.833-2.596 1.689-3.922 2.4-1.262.676-2.605 1.199-3.848 1.76-.705-.521-1.37-.955-1.963-1.471-.383-.334-.54-.861-.191-1.294.492-.617 1.027-1.226 1.639-1.718.81-.651 1.655-1.246 2.25-2.315zm32.87-19.157c.475 1.775 1.021 3.537.238 5.474-1.443.105-2.447-.719-3.36-1.726-.522-.574-1.03-1.161-1.575-1.778l-2.463.611c-.67-1.409-.012-2.717-.084-4.3-.854-1.382-1.85-3.005-2.855-4.621-.254-.406-.566-.776-.799-1.192-.525-.939-.02-1.953 1.057-2.165.918-.181 1.77.009 2.457.623.65.582 1.22 1.257 1.82 1.894.596.63 1.05 1.419 2.057 1.763.195-.12.541-.218.695-.444.938-1.372 2.275-1.302 3.65-1.049.973.18 1.807 1.119 1.965 2.122.05.314.066.634.117.948.107.682-.06 1.234-.607 1.703-.78.671-1.514 1.394-2.313 2.137zm17.83 28.609l.068-.621c-.49 0-.982.037-1.465-.018-.213-.023-.46-.189-.598-.366-.287-.369-.51-.788-.723-1.128.488-1.762 1.381-3.113 3.088-4-1.057-1.531-2.318-2.689-3.57-3.791.451-1.35 1.541-1.453 2.559-1.375.852.064 1.695.408 2.506.723.584.229 1.105.613 1.705.956.908-.644 1.764-1.339 2.701-1.894 1.596-.945 3.697-.049 4.14 1.707.036.146.05.381-.034.461-.6.566-.369 1.252-.37 1.927 0 .276-.267.565-.448.822-.32.456-.668.892-1.09 1.45v3.244c-.668.662-1.199.393-1.69.152-1.35-.656-2.567-.445-3.813.348-.926.59-1.873 1.219-3.023 1.34l.057.063zM18.568 79.488c1.754 2.879 1.924 3.779 1.012 5.576-1.262-.604-2.609-1.004-3.72-1.956-.985-.843-1.706-.835-2.804-.128a7.08 7.08 0 00-.936.738c-.64.594-1.342.416-1.992.108-.584-.276-.639-.865-.539-1.45.135-.781.164-1.607.451-2.33.467-1.175.311-2.161-.469-3.112a2.583 2.583 0 01-.47-.825c-.187-.596-.478-1.229.07-1.791.456-.469 1.04-.359 1.575-.211.451.127.883.346 1.305.562.422.217.822.479 1.35.792.44-.417.861-.865 1.33-1.254.967-.799 2.053-1.219 3.322-.873.992.27 1.617 1.033 1.713 2.055.166 1.773.09 2.042-1.198 4.099z" fill="#000"/></svg>
